X:3007
T:Yoshke fort avek
C:anon.
O:Litauen
Z:Transcribed by Frank Nordberg - http://www.musicaviva.com
F:http://abc.musicaviva.com/tunes/litauen/yoshke-fort-avek.abc
M:C
L:1/8
K:Am
"Am"Ec BA Ec BA|"Dm"c2c>cc4|"Dm"Bc de dc BA|"E7"^GB BB B4||
"Dm"(BA) (A^G) (GF) (FE)|"E7"E^G GG G4|"m"BA A^G GF (F/E/)D|"E"EE EE (E2He2)||
W:
W:
W:  From Musica Viva - http://www.musicaviva.com
W:  the Internet center for free sheet music downloads.


